X:1
T:[ID 6-45]
T:[ID 6-45]
T:Bezeichnung standardisiert: Boure Boure 11.
T:Urheber unbekannt Datum in der hier transkribierten schriftlichen Quelle: 1775
C:Urheber unbekannt
C:Datum in der hier transkribierten schriftlichen Quelle: 1775
L:1/8
M:2/4
K:G
V:1 treble 
V:1
 B/A/ | GF GA/G/ | F2 z B/A/ | GD/B,/ CB,/A,/ | B,3 :: B | cB cB | cB cB | cB c/B/A/G/ | %9
 F/E/F/G/ FB/A/ | GF GA/G/ | F2 z B/A/ | GD/B,/ CB,/A,/ | B,3 :| %14

